X:1
T:Title
%%score { ( 1 3 ) | ( 2 4 ) }
L:1/8
M:2/4
K:Ab
V:1 treble nm="Grand Piano"
V:3 treble 
V:2 bass 
V:4 bass 
V:1
 z2 z[Q:1/4=92] [CE] | [Ec]3 [DB] | [CA]3 [EG] | .B2 z2 | [DF]2 [CE]E | E3 F | G2 A2 | .c2 z2 | %8
 B3 E | [Ec]3 [DB] | [CA]3 [EG] | .B2 z2 | F2 Ee | e3 [Ec] | [EA]2 [Ec]2 | [Ec]B B>E | %16
[M:3/8] [A,CA]3 |[M:1/8] c |[M:2/4] c4 | B4 | Bc =dB | [GB]2 [Ge]e | e4 | A4 | cB Bc | %25
[M:7/16] B-<B z/ z |] %26
V:2
 z2 z [A,,A,] | [A,,A,]3 [A,,E,] | [A,,E,]3 [C,A,] | [D,A,]2 [D,A,]2 | [A,,A,]2 [A,,A,][E,G,D] | %5
 [A,C]3 [A,C] | [G,CE]2 [F,CE]2 | [B,,A,]2 [=D,A,]2 | [E,G,E]3 [E,G,] | [A,,A,]3 [A,,E,] | %10
 [A,,E,]3 [C,A,] | [D,A,]2 [F,A,D]2 | [A,D]2 [A,C][G,DE] | [A,CE]3 [A,,A,] | [C,A,]2 [A,,A,]2 | %15
 z D [E,G,D]2 |[M:3/8] A,,3 |[M:1/8][K:treble] A |[M:2/4] A4 | G4[K:bass] | %20
 [B,=DA][B,EA] [B,FA][B,DA] | [E,E]2 [E,B,]D | C4 | C4 | [E,A,E][E,G,D] [E,G,D][E,G,E] | %25
[M:7/16] D-<D z/ z |] %26
V:3
 x4 | x4 | x4 | F-[FA] [EG][DF] | x4 | x4 | x4 | =D-[DB] [FB]>F | x4 | x4 | x4 | F-[FA] dF | x4 | %13
 x4 | x4 | x4 |[M:3/8] x3 |[M:1/8] x |[M:2/4] z E Ec | z E E[EGB] | x4 | x4 | z A Ac | z E E[Ec] | %24
 x4 |[M:7/16] z E,[CA]3/2 |] %26
V:4
 x4 | x4 | x4 | x4 | x4 | x4 | x4 | x4 | x4 | x4 | x4 | x4 | x4 | x4 | x4 | [E,A,]2 z2 | %16
[M:3/8] x3 |[M:1/8][K:treble] x |[M:2/4] z A, A,A | z[K:bass] E, E,E, | x4 | x4 | z A, A,E | %23
 z A,, A,,[A,,A,] | x4 |[M:7/16] [E,G,] z [A,,E,]3/2 |] %26

